svg/furkot/freepik/structure.svg

<svg viewBox="0 0 512 512" xmlns="http://www.w3.org/2000/svg"><path d="m497.793 508.166v-15.778c0-2.31-1.874-4.184-4.184-4.184h-24.316v-17.819c0-2.311-1.873-4.184-4.184-4.184h-1.977c-2.311 0-4.184-1.873-4.184-4.184v-235.435c0-2.311 1.873-4.184 4.184-4.184h6.678c2.311 0 4.184-1.873 4.184-4.184v-18.866c0-2.31-1.873-4.183-4.184-4.183h-6.678c-2.311 0-4.184-1.874-4.184-4.184v-11.215c0-2.31-1.873-4.183-4.184-4.183h-9.528-1.334-106.113-3.948-6.914c-2.31 0-4.183 1.873-4.183 4.183v11.215c0 2.31-1.874 4.184-4.184 4.184h-6.679c-2.31 0-4.184 1.873-4.184 4.183v18.866c0 2.311 1.874 4.184 4.184 4.184h6.679c2.31 0 4.184 1.873 4.184 4.184v94.836c0 2.31-1.874 4.184-4.184 4.184h-276.021c-2.31 0-4.183 1.873-4.183 4.184v27.979c0 2.311 1.873 4.184 4.183 4.184h280.205v12.552h-280.205c-2.31 0-4.183 1.873-4.183 4.183v3.487c0 2.311 1.873 4.184 4.183 4.184h280.205v13.598h-280.205c-2.31 0-4.183 1.873-4.183 4.183v3.487c0 2.311 1.873 4.184 4.183 4.184h280.205v13.598h-280.205c-2.31 0-4.183 1.873-4.183 4.183v3.487c0 2.311 1.873 4.184 4.183 4.184h280.205v12.552h-280.205c-2.31 0-4.183 1.873-4.183 4.183v3.487c0 2.311 1.873 4.184 4.183 4.184h280.205v12.552h-280.205c-2.31 0-4.183 1.873-4.183 4.183v9.804h-19.615c-2.311 0-4.184 1.874-4.184 4.184v15.778c0 2.311 1.873 4.184 4.184 4.184h474.868c2.31 0 4.184-1.873 4.184-4.184zm-119.237-269.947c0-2.889 2.342-5.23 5.23-5.23h14.12c2.889 0 5.23 2.341 5.23 5.23v2.267c0 2.888-2.341 5.23-5.23 5.23h-14.12c-2.888 0-5.23-2.342-5.23-5.23zm0 22.749c0-2.888 2.342-5.229 5.23-5.229h14.12c2.889 0 5.23 2.341 5.23 5.229v2.267c0 2.889-2.341 5.23-5.23 5.23h-14.12c-2.888 0-5.23-2.341-5.23-5.23zm0 45.5c0-2.889 2.342-5.23 5.23-5.23h14.12c2.889 0 5.23 2.341 5.23 5.23v2.615c0 2.888-2.341 5.23-5.23 5.23h-14.12c-2.888 0-5.23-2.342-5.23-5.23zm0 20.935c0-2.888 2.342-5.229 5.23-5.229h14.12c2.889 0 5.23 2.341 5.23 5.229v2.267c0 2.888-2.341 5.23-5.23 5.23h-14.12c-2.888 0-5.23-2.342-5.23-5.23zm0 44.291c0-2.888 2.342-5.23 5.23-5.23h14.12c2.889 0 5.23 2.342 5.23 5.23v2.267c0 2.889-2.341 5.23-5.23 5.23h-14.12c-2.888 0-5.23-2.341-5.23-5.23zm0 22.144c0-2.888 2.342-5.229 5.23-5.229h14.12c2.889 0 5.23 2.341 5.23 5.229v2.268c0 2.888-2.341 5.23-5.23 5.23h-14.12c-2.888 0-5.23-2.342-5.23-5.23zm0 44.291c0-2.889 2.342-5.23 5.23-5.23h14.12c2.889 0 5.23 2.341 5.23 5.23v2.267c0 2.888-2.341 5.23-5.23 5.23h-.949-12.222-.949c-2.888 0-5.23-2.342-5.23-5.23zm-35.305-199.91c0-2.889 2.342-5.23 5.23-5.23h14.121c2.888 0 5.229 2.341 5.229 5.23v2.267c0 2.888-2.341 5.23-5.229 5.23h-14.121c-2.888 0-5.23-2.342-5.23-5.23zm0 22.749c0-2.888 2.342-5.229 5.23-5.229h14.121c2.888 0 5.229 2.341 5.229 5.229v2.267c0 2.889-2.341 5.23-5.229 5.23h-14.121c-2.888 0-5.23-2.341-5.23-5.23zm0 44.291c0-2.888 2.342-5.23 5.23-5.23h14.121c2.888 0 5.229 2.342 5.229 5.23v2.267c0 2.888-2.341 5.23-5.229 5.23h-14.121c-2.888 0-5.23-2.342-5.23-5.23zm0 22.144c0-2.888 2.342-5.229 5.23-5.229h14.121c2.888 0 5.229 2.341 5.229 5.229v2.267c0 2.888-2.341 5.23-5.229 5.23h-14.121c-2.888 0-5.23-2.342-5.23-5.23zm0 44.291c0-2.888 2.342-5.23 5.23-5.23h14.121c2.888 0 5.229 2.342 5.229 5.23v2.267c0 2.889-2.341 5.23-5.229 5.23h-14.121c-2.888 0-5.23-2.341-5.23-5.23zm0 22.144c0-2.888 2.342-5.229 5.23-5.229h14.121c2.888 0 5.229 2.341 5.229 5.229v2.268c0 2.888-2.341 5.23-5.229 5.23h-14.121c-2.888 0-5.23-2.342-5.23-5.23zm5.23 51.788c-2.888 0-5.23-2.341-5.23-5.23v-2.267c0-2.888 2.342-5.23 5.23-5.23h14.121c2.888 0 5.229 2.342 5.229 5.23v2.267c0 2.889-2.341 5.23-5.229 5.23h-.947-12.222zm73.13 42.578h-62.06v-19.153c0-2.311 1.873-4.184 4.184-4.184h53.693c2.311 0 4.184 1.873 4.184 4.184zm16.829-47.808c0 2.889-2.341 5.23-5.229 5.23h-.953-12.221-.947c-2.888 0-5.23-2.341-5.23-5.23v-2.267c0-2.888 2.342-5.23 5.23-5.23h14.12c2.888 0 5.23 2.342 5.23 5.23zm0-44.29c0 2.888-2.341 5.23-5.229 5.23h-14.121c-2.888 0-5.23-2.342-5.23-5.23v-2.268c0-2.888 2.342-5.229 5.23-5.229h14.121c2.888 0 5.229 2.341 5.229 5.229zm0-22.145c0 2.889-2.341 5.23-5.229 5.23h-14.121c-2.888 0-5.23-2.341-5.23-5.23v-2.267c0-2.888 2.342-5.23 5.23-5.23h14.121c2.888 0 5.229 2.342 5.229 5.23zm0-44.29c0 2.888-2.341 5.23-5.229 5.23h-14.121c-2.888 0-5.23-2.342-5.23-5.23v-2.267c0-2.889 2.342-5.23 5.23-5.23h14.121c2.888 0 5.229 2.341 5.229 5.23zm0-22.145c0 2.888-2.341 5.23-5.229 5.23h-14.121c-2.888 0-5.23-2.342-5.23-5.23v-2.268c0-2.888 2.342-5.23 5.23-5.23h14.121c2.888 0 5.229 2.342 5.229 5.23zm0-44.291c0 2.889-2.341 5.23-5.229 5.23h-14.121c-2.888 0-5.23-2.341-5.23-5.23v-2.267c0-2.888 2.342-5.229 5.23-5.229h14.121c2.888 0 5.229 2.341 5.229 5.229zm0-22.749c0 2.888-2.341 5.23-5.229 5.23h-14.121c-2.888 0-5.23-2.342-5.23-5.23v-2.267c0-2.889 2.342-5.23 5.23-5.23h14.121c2.888 0 5.229 2.341 5.229 5.23zm-41.483-240.486h-12.222c-2.31 0-4.184 1.873-4.184 4.184v97.51c0 2.311-1.873 4.184-4.183 4.184h-34.395c-2.31 0-4.184 1.874-4.184 4.184v58.164h106.113v-58.164c0-2.31-1.873-4.184-4.183-4.184h-34.394c-2.311 0-4.184-1.873-4.184-4.184v-97.51c0-2.311-1.874-4.184-4.184-4.184zm-16.051 152.404c0 2.889-2.341 5.23-5.23 5.23h-13.597c-2.889 0-5.23-2.341-5.23-5.23v-2.614c0-2.889 2.341-5.23 5.23-5.23h13.597c2.889 0 5.23 2.341 5.23 5.23zm0-20.919c0 2.889-2.341 5.23-5.23 5.23h-13.597c-2.889 0-5.23-2.341-5.23-5.23v-2.615c0-2.888 2.341-5.23 5.23-5.23h13.597c2.889 0 5.23 2.342 5.23 5.23zm43.669 20.919c0 2.889-2.341 5.23-5.23 5.23h-13.597c-2.889 0-5.23-2.341-5.23-5.23v-2.614c0-2.889 2.341-5.23 5.23-5.23h13.597c2.889 0 5.23 2.341 5.23 5.23zm-18.827-28.764h13.597c2.889 0 5.23 2.342 5.23 5.23v2.615c0 2.889-2.341 5.23-5.23 5.23h-13.597c-2.889 0-5.23-2.341-5.23-5.23v-2.615c0-2.888 2.341-5.23 5.23-5.23z"/></svg>

<svg xmlns="http://www.w3.org/2000/svg" viewBox="0 0 512 512"><path d="M497.793 508.166V492.388C497.793 490.078 495.919 488.204 493.609 488.204H469.293V470.385C469.293 468.074 467.42 466.201 465.109 466.201H463.132C460.821 466.201 458.948 464.328 458.948 462.017V226.582C458.948 224.271 460.821 222.398 463.132 222.398H469.81C472.121 222.398 473.994 220.525 473.994 218.214V199.348C473.994 197.038 472.121 195.165 469.81 195.165H463.132C460.821 195.165 458.948 193.291 458.948 190.981V179.766C458.948 177.456 457.075 175.583 454.764 175.583H445.236 443.902 337.789 333.841 326.927C324.617 175.583 322.744 177.456 322.744 179.766V190.981C322.744 193.291 320.87 195.165 318.56 195.165H311.881C309.571 195.165 307.697 197.038 307.697 199.348V218.214C307.697 220.525 309.571 222.398 311.881 222.398H318.56C320.87 222.398 322.744 224.271 322.744 226.582V321.418C322.744 323.728 320.87 325.602 318.56 325.602H42.539C40.229 325.602 38.356 327.475 38.356 329.786V357.765C38.356 360.076 40.229 361.949 42.539 361.949H322.744V374.501H42.539C40.229 374.501 38.356 376.374 38.356 378.684V382.171C38.356 384.482 40.229 386.355 42.539 386.355H322.744V399.953H42.539C40.229 399.953 38.356 401.826 38.356 404.136V407.623C38.356 409.934 40.229 411.807 42.539 411.807H322.744V425.405H42.539C40.229 425.405 38.356 427.278 38.356 429.588V433.075C38.356 435.386 40.229 437.259 42.539 437.259H322.744V449.811H42.539C40.229 449.811 38.356 451.684 38.356 453.994V457.481C38.356 459.792 40.229 461.665 42.539 461.665H322.744V474.217H42.539C40.229 474.217 38.356 476.09 38.356 478.4V488.204H18.741C16.43 488.204 14.557 490.078 14.557 492.388V508.166C14.557 510.477 16.43 512.35 18.741 512.35H493.609C495.919 512.35 497.793 510.477 497.793 508.166ZM378.556 238.219C378.556 235.33 380.898 232.989 383.786 232.989H397.906C400.795 232.989 403.136 235.33 403.136 238.219V240.486C403.136 243.374 400.795 245.716 397.906 245.716H383.786C380.898 245.716 378.556 243.374 378.556 240.486V238.219ZM378.556 260.968C378.556 258.08 380.898 255.739 383.786 255.739H397.906C400.795 255.739 403.136 258.08 403.136 260.968V263.235C403.136 266.124 400.795 268.465 397.906 268.465H383.786C380.898 268.465 378.556 266.124 378.556 263.235V260.968ZM378.556 306.468C378.556 303.579 380.898 301.238 383.786 301.238H397.906C400.795 301.238 403.136 303.579 403.136 306.468V309.083C403.136 311.971 400.795 314.313 397.906 314.313H383.786C380.898 314.313 378.556 311.971 378.556 309.083V306.468ZM378.556 327.403C378.556 324.515 380.898 322.174 383.786 322.174H397.906C400.795 322.174 403.136 324.515 403.136 327.403V329.67C403.136 332.558 400.795 334.9 397.906 334.9H383.786C380.898 334.9 378.556 332.558 378.556 329.67V327.403ZM378.556 371.694C378.556 368.806 380.898 366.464 383.786 366.464H397.906C400.795 366.464 403.136 368.806 403.136 371.694V373.961C403.136 376.85 400.795 379.191 397.906 379.191H383.786C380.898 379.191 378.556 376.85 378.556 373.961V371.694ZM378.556 393.838C378.556 390.95 380.898 388.609 383.786 388.609H397.906C400.795 388.609 403.136 390.95 403.136 393.838V396.106C403.136 398.994 400.795 401.336 397.906 401.336H383.786C380.898 401.336 378.556 398.994 378.556 396.106V393.838ZM378.556 438.129C378.556 435.24 380.898 432.899 383.786 432.899H397.906C400.795 432.899 403.136 435.24 403.136 438.129V440.396C403.136 443.284 400.795 445.626 397.906 445.626H396.957 384.735 383.786C380.898 445.626 378.556 443.284 378.556 440.396L378.556 438.129 378.556 438.129ZM343.251 238.219C343.251 235.33 345.593 232.989 348.481 232.989H362.602C365.49 232.989 367.831 235.33 367.831 238.219V240.486C367.831 243.374 365.49 245.716 362.602 245.716H348.481C345.593 245.716 343.251 243.374 343.251 240.486V238.219ZM343.251 260.968C343.251 258.08 345.593 255.739 348.481 255.739H362.602C365.49 255.739 367.831 258.08 367.831 260.968V263.235C367.831 266.124 365.49 268.465 362.602 268.465H348.481C345.593 268.465 343.251 266.124 343.251 263.235V260.968ZM343.251 305.259C343.251 302.371 345.593 300.029 348.481 300.029H362.602C365.49 300.029 367.831 302.371 367.831 305.259V307.526C367.831 310.414 365.49 312.756 362.602 312.756H348.481C345.593 312.756 343.251 310.414 343.251 307.526V305.259ZM343.251 327.403C343.251 324.515 345.593 322.174 348.481 322.174H362.602C365.49 322.174 367.831 324.515 367.831 327.403V329.67C367.831 332.558 365.49 334.9 362.602 334.9H348.481C345.593 334.9 343.251 332.558 343.251 329.67V327.403ZM343.251 371.694C343.251 368.806 345.593 366.464 348.481 366.464H362.602C365.49 366.464 367.831 368.806 367.831 371.694V373.961C367.831 376.85 365.49 379.191 362.602 379.191H348.481C345.593 379.191 343.251 376.85 343.251 373.961V371.694ZM343.251 393.838C343.251 390.95 345.593 388.609 348.481 388.609H362.602C365.49 388.609 367.831 390.95 367.831 393.838V396.106C367.831 398.994 365.49 401.336 362.602 401.336H348.481C345.593 401.336 343.251 398.994 343.251 396.106V393.838ZM348.481 445.626C345.593 445.626 343.251 443.285 343.251 440.396V438.129C343.251 435.241 345.593 432.899 348.481 432.899H362.602C365.49 432.899 367.831 435.241 367.831 438.129V440.396C367.831 443.285 365.49 445.626 362.602 445.626H361.655 349.433 348.481ZM421.611 488.204H359.551V469.051C359.551 466.74 361.424 464.867 363.735 464.867H417.428C419.739 464.867 421.612 466.74 421.612 469.051L421.611 488.204 421.611 488.204ZM438.44 440.396C438.44 443.285 436.099 445.626 433.211 445.626H432.258 420.037 419.09C416.202 445.626 413.86 443.285 413.86 440.396V438.129C413.86 435.241 416.202 432.899 419.09 432.899H433.21C436.098 432.899 438.44 435.241 438.44 438.129L438.44 440.396 438.44 440.396ZM438.44 396.106C438.44 398.994 436.099 401.336 433.211 401.336H419.09C416.202 401.336 413.86 398.994 413.86 396.106V393.838C413.86 390.95 416.202 388.609 419.09 388.609H433.211C436.099 388.609 438.44 390.95 438.44 393.838V396.106ZM438.44 373.961C438.44 376.85 436.099 379.191 433.211 379.191H419.09C416.202 379.191 413.86 376.85 413.86 373.961V371.694C413.86 368.806 416.202 366.464 419.09 366.464H433.211C436.099 366.464 438.44 368.806 438.44 371.694V373.961ZM438.44 329.671C438.44 332.559 436.099 334.901 433.211 334.901H419.09C416.202 334.901 413.86 332.559 413.86 329.671V327.404C413.86 324.515 416.202 322.174 419.09 322.174H433.211C436.099 322.174 438.44 324.515 438.44 327.404V329.671ZM438.44 307.526C438.44 310.414 436.099 312.756 433.211 312.756H419.09C416.202 312.756 413.86 310.414 413.86 307.526V305.258C413.86 302.37 416.202 300.028 419.09 300.028H433.211C436.099 300.028 438.44 302.37 438.44 305.258V307.526ZM438.44 263.235C438.44 266.124 436.099 268.465 433.211 268.465H419.09C416.202 268.465 413.86 266.124 413.86 263.235V260.968C413.86 258.08 416.202 255.739 419.09 255.739H433.211C436.099 255.739 438.44 258.08 438.44 260.968V263.235ZM438.44 240.486C438.44 243.374 436.099 245.716 433.211 245.716H419.09C416.202 245.716 413.86 243.374 413.86 240.486V238.219C413.86 235.33 416.202 232.989 419.09 232.989H433.211C436.099 232.989 438.44 235.33 438.44 238.219V240.486ZM396.957 0H384.735C382.425 0 380.551 1.873 380.551 4.184V101.694C380.551 104.005 378.678 105.878 376.368 105.878H341.973C339.663 105.878 337.789 107.752 337.789 110.062V168.226H443.902V110.062C443.902 107.752 442.029 105.878 439.719 105.878H405.325C403.014 105.878 401.141 104.005 401.141 101.694V4.184C401.141 1.873 399.267 0 396.957 0ZM380.906 152.404C380.906 155.293 378.565 157.634 375.676 157.634H362.079C359.19 157.634 356.849 155.293 356.849 152.404V149.79C356.849 146.901 359.19 144.56 362.079 144.56H375.676C378.565 144.56 380.906 146.901 380.906 149.79V152.404ZM380.906 131.485C380.906 134.374 378.565 136.715 375.676 136.715H362.079C359.19 136.715 356.849 134.374 356.849 131.485V128.87C356.849 125.982 359.19 123.64 362.079 123.64H375.676C378.565 123.64 380.906 125.982 380.906 128.87V131.485ZM424.575 152.404C424.575 155.293 422.234 157.634 419.345 157.634H405.748C402.859 157.634 400.518 155.293 400.518 152.404V149.79C400.518 146.901 402.859 144.56 405.748 144.56H419.345C422.234 144.56 424.575 146.901 424.575 149.79V152.404ZM405.748 123.64H419.345C422.234 123.64 424.575 125.982 424.575 128.87V131.485C424.575 134.374 422.234 136.715 419.345 136.715H405.748C402.859 136.715 400.518 134.374 400.518 131.485V128.87C400.518 125.982 402.859 123.64 405.748 123.64Z"/></svg>
